X: 83
T:Short and Sweet
M:6/8
L:1/8
K:G
"G"gde dGg | "Am"ga/g/f e2a | "Bm"a/g/fb "C"adg | "D"g2f "G"g3 :|
"G"dBd BdB | "D"AdA GdF | "Em"GAB "Am"cBA | "Em"GAB "Am"cBA |
"G"B2c def | "Em"gfe "G7"d=fe | "C"c2B "Am"c/B/AG | "D"G2F "G"G3 :|


